rospo-icon-theme-classic-common/24x24/places/folder-cyan-gnome.svg

<svg height="24" width="24" xmlns="http://www.w3.org/2000/svg"><rect height="12" opacity=".2" rx="1" width="20" x="2" y="9.5"/><path d="m2 17c0 .554.446 1 1 1h18c .554 0 1-.446 1-1v-11c0-.554-.446-1-1-1h-10v-1c0-.554-.446-1-1-1h-7c-.554 0-1 .446-1 1" fill="#0096aa"/><rect height="12" opacity=".2" rx="1" width="20" x="2" y="8.5"/><rect fill="#e4e4e4" height="8" rx="1" width="16" x="4" y="7"/><rect fill="#00bcd4" height="12" rx="1" width="20" x="2" y="9"/><path d="m3 3c-.554 0-1 .446-1 1v .5c0-.554.446-1 1-1h7c .554 0 1 .446 1 1v-.5c0-.554-.446-1-1-1zm8 2v .5h10c .554 0 1 .446 1 1v-.5c0-.554-.446-1-1-1z" fill="#fff" opacity=".1"/><path d="m15.084 10c-2.221 0-2.638 3-1.389 3 1.25 0 3.61-3 1.389-3zm-3.471.5c-.023 0-.048.002-.074.006-.847.136-.548 1.96-.098 1.994.437.033.913-1.993.174-2zm-1.544.5c-.061-.005-.127.009-.2014.047-.7932.401-.1198 2.059.3244 1.947.403-.101.46-1.948-.123-1.994zm-1.1057 1c-.0707-.003-.1468.029-.2285.105-.6518.615.2199 2.102.6035 1.872.3354-.202.1206-1.954-.375-1.977zm4.0427 1c-1.556-.029-3.6086.829-3.9587 2.551-.3787 1.863 1.5627 4.449 3.5857 4.449.995 0 2.142-1.186 2.357-2.438.164-.953-2.03-.572-1.955.059.09.756-.505 1.331-1.088.844-1.856-1.553 3.175-2.328 2.85-4.449-.102-.661-.858-.997-1.791-1.014z" fill="#00424a"/></svg>

<svg xmlns="http://www.w3.org/2000/svg" width="24" height="24" version="1">
 <rect style="opacity:0.2" width="20" height="12" x="2" y="9.5" rx="1" ry="1"/>
 <path style="fill:#0096aa" d="M 2,17 C 2,17.554 2.446,18 3,18 H 21 C 21.554,18 22,17.554 22,17 V 6 C 22,5.446 21.554,5 21,5 H 11 V 4 C 11,3.446 10.554,3 10,3 H 3 C 2.446,3 2,3.446 2,4"/>
 <rect style="opacity:0.2" width="20" height="12" x="2" y="8.5" rx="1" ry="1"/>
 <rect style="fill:#dcdcdc" width="16" height="8" x="4" y="7" rx="1" ry="1"/>
 <rect style="fill:#00bcd4" width="20" height="12" x="2" y="9" rx="1" ry="1"/>
 <path style="opacity:0.1;fill:#ffffff" d="M 3,3 C 2.446,3 2,3.446 2,4 V 4.5 C 2,3.946 2.446,3.5 3,3.5 H 10 C 10.554,3.5 11,3.946 11,4.5 V 4 C 11,3.446 10.554,3 10,3 Z M 11,5 V 5.5 H 21 C 21.554,5.5 22,5.946 22,6.5 V 6 C 22,5.446 21.554,5 21,5 Z"/>
 <path style="fill:#00424A" d="M 15.084,10 C 12.863,10 12.446,13 13.695,13 14.945,13 17.305,10 15.084,10 Z M 11.613,10.5 C 11.59,10.5 11.565,10.502 11.539,10.506 10.692,10.642 10.991,12.466 11.441,12.5 11.878,12.533 12.354,10.507 11.615,10.5 Z M 10.069,11 C 10.008,10.995 9.942,11.009 9.8676,11.047 9.0744,11.448 9.7478,13.106 10.192,12.994 10.595,12.893 10.652,11.046 10.069,11 Z M 8.9633,12 C 8.8926,11.997 8.8165,12.029 8.7348,12.105 8.083,12.72 8.9547,14.207 9.3383,13.977 9.6737,13.775 9.4589,12.023 8.9633,12 Z M 13.006,13 C 11.45,12.971 9.3974,13.829 9.0473,15.551 8.6686,17.414 10.61,20 12.633,20 13.628,20 14.775,18.814 14.99,17.562 15.154,16.609 12.96,16.99 13.035,17.621 13.125,18.377 12.53,18.952 11.947,18.465 10.091,16.912 15.122,16.137 14.797,14.016 14.695,13.355 13.939,13.019 13.006,13.002 Z"/>
</svg>
